X:270
T: Bee's Wings
M: 4/4
L: 1/8
S: Luke O'Malley vol 1
Z: B.Black
R: hornpipe
K: Bb
(3FGA|BfdB AecA|FdBF DBFD|EGBe DFBd|\
(3cdc (3BAG F2 GA |
BfdB AfcD|EBGe DBFD|EGce dcBA|B2 d2 B2 :|
fe|(3dcB fd bfdB|(3cBA fc afcA|(3GFE BG ecdB|\
(3cdc (3BAG F2 GA |
BfdB AfcD|EBGe DBFD|EGce dcBA|B2 d2 B2 :|
P: version in A
K: A
(3EFG|AecA GdBG|EcAE CAEC|DFAd CEAc|\
(3BcB (3AGF E2 FG |
AecA GeBC|DAFd CAEC|DFBd cBAG|A2 c2 A2 :|
ed|(3cBA ec aecA|(3BAG eB geBG|(3FED AF dBcA|\
(3BcB (3AGF E2 FG |
AecA GeBC|DAFd CAEC|DFBd cBAG|A2 c2 A2 :|
